X:1
T: The Maids of Currie
C:
R:Reel
Q: 232
K:G
M:4/4
L:1/8
|:BA|G2 g2 de dc|Bc BA B2 BA|G2 g2 de dB|A4 A2 BA|
G2 g2 de dc|BA Bc d2 ef|gd dd de dB|AG AB G2 BA|
G2 G2 GB AG|AG AB A2 BA|G2 G2 GB AG|A4 A2 BA|
G2 G2 GB AG|AG AB A2 Bc|dB cd BG AB|G4 G2:|
